X: 14657
T: Gan Ainm
R: jig
M: 6/8
K: Adorian
|:A3 A2G|ABc e3|A3 A2G|ABc BAG|
A3 A2G|ABc e3|=fed edc|1 dcB cBG:|2 dcB Bcd||
|:e3 e2d|efg b3|e3 e2d|efg fed|
e3 e2d|efg b3|c'ba bag|1 agf gfd:|2 agf edB||

